!!!COM: Arthur Honegger
!!!OTL: [T607_Hon-w35p32-33h5m1-15]
**kern	**dynam	**kern	**dynam	**kern	**dynam	**kern	**dynam	**kern	**dynam
*grp:A	*grp:A	*grp:A	*grp:A	*grp:A	*grp:A	*grp:B	*grp:B	*grp:B	*grp:B
*part5	*part5	*part4	*part4	*part3	*part3	*part2	*part2	*part1	*part1
*staff5	*	*staff4	*	*staff3	*	*staff2	*	*staff1	*
*I"Contrabass	*	*I"Violoncello	*	*I"Viola	*	*I"Violin II	*	*I"Violin I	*
*I'Cb.	*	*I'Vc.	*	*I'Vla.	*	*I'Vln. II	*	*I'Vln. I	*
*clefF4	*	*clefF4	*	*clefC3	*	*clefG2	*	*clefG2	*
*ITrd7c12	*	*	*	*	*	*	*	*	*
*k[]	*	*k[]	*	*k[]	*	*k[]	*	*k[]	*
*C:	*	*C:	*	*C:	*	*C:	*	*C:	*
*M6/8	*	*M6/8	*	*M6/8	*	*M6/8	*	*M6/8	*
!!LO:REH:t=5
=65	=65	=65	=65	=65	=65	=65	=65	=65	=65
*	*	*	*	*	*	*tremolo	*	*	*
!	!	!	!	!	!	!	!	!LO:TX:t=[[quarter-dot]=100]	!
!	!LO:DY:ed=brack	!	!LO:DY:ed=brack	!	!LO:DY:ed=brack	!	!LO:DY:ed=brack	!	!LO:DY:ed=brack
8AA#XL	f	8BB-X^L 8G	f	8c#X^L 8en	f	16ryy	4ryy	8ryy	4ryy
.	.	.	.	.	.	16ryy	.	.	.
!	!	!LO:TX:a:t=Tutti	!	!	!	!	!	!	!
8C#XJ	.	\8C#X^J	.	8c#^J 8e	.	16ryy	.	8ryy	.
.	.	.	.	.	.	16ryy	.	.	.
8r	.	8r	.	8r	.	16ryy	.	8ryy	.
.	.	.	.	.	.	16ryy	.	.	.
!LO:TX:a:t=pizz.	!	!	!	!LO:TX:a:t=Div. en 3	!	!	!	!	!
4r	>	4r	>	4r	>	16ryy	4ryy	4ryy	.
.	.	.	.	.	.	16ryy	.	.	.
.	.	.	.	.	.	16ryy	.	.	.
.	.	.	.	.	.	16ryy	.	.	.
!LO:TX:t=P:problem:Cross-Measure Beaming still needs to be applied.	!	!LO:TX:t=P:problem:Cross-Measure Beaming still needs to be applied.	!	!LO:TX:t=P:problem:Cross-Measure Beaming still needs to be applied.	!	!	!	!	!
8GGG#XL	.	8GG#XL	.	8A-XL 8e 8fn	.	16ryy	.	8ryy	.
.	.	.	.	.	.	16ryy	.	.	.
=66	=66	=66	=66	=66	=66	=66	=66	=66	=66
/8DDnJ	.	/8DnJ	.	8AJ 8e 8f	.	16ryy	.	4%3ryy	.
.	.	.	.	.	.	16ryy	.	.	.
8r	.	8r	.	8r	.	16ryy	.	.	.
.	.	.	.	.	.	16ryy	.	.	.
8r	.	8r	.	8r	.	16ryy	.	.	.
.	.	.	.	.	.	16ryy	.	.	.
8r	.	8r	.	8r	.	16ryy	.	.	.
.	.	.	.	.	.	16ryy	.	.	.
8FFF#XL	.	8FF#XL	.	8G#XL 8A 8c#X	.	16ryy	.	.	.
.	.	.	.	.	.	16ryy	.	.	.
/8EEJ	.	/8EJ	.	8G#J 8A 8c#	.	16ryy	.	.	.
.	.	.	.	.	.	16ryy	.	.	.
=67	=67	=67	=67	=67	=67	=67	=67	=67	=67
4r	.	4r	.	4r	.	16ryy	.	4%3ryy	.
.	.	.	.	.	.	16ryy	.	.	.
.	.	.	.	.	.	16ryy	.	.	.
.	.	.	.	.	.	16ryy	.	.	.
8r	.	8r	.	8r	.	16ryy	.	.	.
.	.	.	.	.	.	16ryy	.	.	.
!	!	!LO:TX:a:t=pizz.	!	!	!	!	!	!	!
8AAA#XL	.	8AA#XL	.	8c#XL 8e 8fn	.	16ryy	.	.	.
.	.	.	.	.	.	16ryy	.	.	.
8CC#XJ	.	8C#XJ	.	8c#J 8e 8f	.	16ryy	.	.	.
.	.	.	.	.	.	16ryy	.	.	.
8r	.	8r	.	8r	.	16ryy	.	.	.
.	.	.	.	.	.	16ryy	.	.	.
=68	=68	=68	=68	=68	=68	=68	=68	=68	=68
4r	.	4r	.	4r	.	16ryy	.	4%3ryy	.
.	.	.	.	.	.	16ryy	.	.	.
.	.	.	.	.	.	16ryy	.	.	.
.	.	.	.	.	.	16ryy	.	.	.
8GGG#X	.	8GG#X	.	8G#X 8e 8f	.	16ryy	.	.	.
.	.	.	.	.	.	16ryy	.	.	.
/8DDn	.	/8Dn	.	8G# 8e 8f	.	16ryy	.	.	.
.	.	.	.	.	.	16ryy	.	.	.
8r	.	8r	.	8r	.	16ryy	.	.	.
.	.	.	.	.	.	16ryy	.	.	.
8r	.	8r	.	8r	.	16ryy	.	.	.
.	.	.	.	.	.	16ryy	.	.	.
=69	=69	=69	=69	=69	=69	=69	=69	=69	=69
8r	.	8r	.	8r	.	16ryy	4ryy	2.ryy	4ryy
.	.	.	.	.	.	16ryy	.	.	.
8FFF#XL	p	8FF#XL	p	8G#XL 8A 8c#X	p	16ryy	.	.	.
.	.	.	.	.	.	16ryy	.	.	.
8EEJ	.	8EJ	.	8G#J 8A 8c#	.	16ryy	.	.	.
.	.	.	.	.	.	16ryy	.	.	.
4r	.	4r	.	4r	.	16ryy	.	.	.
.	.	.	.	.	.	16ryy	.	.	.
.	.	.	.	.	.	16ryy	.	.	.
.	.	.	.	.	.	16ryy	.	.	.
8r	.	8r	.	8r	.	16ryy	.	.	.
.	.	.	.	.	.	16ryy	.	.	.
!!linebreak:original
=70	=70	=70	=70	=70	=70	=70	=70	=70	=70
8AAA#XL	.	8AA#XL	.	8c#XL 8e 8fn	.	16ryy	.	2.ryy	.
.	.	.	.	.	.	16ryy	.	.	.
8CC#XJ	.	8C#XJ	.	8c#J 8e 8f	.	16ryy	.	.	.
.	.	.	.	.	.	16ryy	.	.	.
8r	.	8r	.	8r	.	16ryy	.	.	.
.	.	.	.	.	.	16ryy	.	.	.
4r	.	4r	.	4r	.	16ryy	.	.	.
.	.	.	.	.	.	16ryy	.	.	.
.	.	.	.	.	.	16ryy	.	.	.
.	.	.	.	.	.	16ryy	.	.	.
8GGG#XL	.	8GG#XL	.	8G#XL 8e 8f	.	16ryy	.	.	.
.	.	.	.	.	.	16ryy	.	.	.
=71	=71	=71	=71	=71	=71	=71	=71	=71	=71
/8DDnJ	.	/8DnJ	.	8G#XJ 8e 8f	.	16ryy	.	4.ryy	.
.	.	.	.	.	.	16ryy	.	.	.
8r	.	8r	.	8r	.	16ryy	.	.	.
.	.	.	.	.	.	16ryy	.	.	.
8r	.	8r	.	8r	.	16ryy	.	.	.
.	.	.	.	.	.	16ryy	.	.	.
8r	.	8r	.	8r	.	16ryy	.	4.ryy	.
.	.	.	.	.	.	16ryy	.	.	.
8FFF#XL	.	8FF#XL	.	8G#L 8A 8c#X	.	16ryy	.	.	.
.	.	.	.	.	.	16ryy	.	.	.
/8EEJ	.	/8EJ	.	8G#J 8A 8c#	.	16ryy	.	.	.
.	.	.	.	.	.	16ryy	.	.	.
=72	=72	=72	=72	=72	=72	=72	=72	=72	=72
4r	.	4r	.	4r	.	16ryy	.	4.ryy	.
.	.	.	.	.	.	16ryy	.	.	.
.	.	.	.	.	.	16ryy	.	.	.
.	.	.	.	.	.	16ryy	.	.	.
8r	.	8r	.	8r	.	16ryy	.	.	.
.	.	.	.	.	.	16ryy	.	.	.
8AAA#XL	.	8AA#XL	.	8c#XL 8e 8fn	.	16ryy	.	4ryy	.
.	.	.	.	.	.	16ryy	.	.	.
8CC#XJ	.	8C#XJ	.	8c#J 8e 8f	.	16ryy	.	.	.
.	.	.	.	.	.	16ryy	.	.	.
8r	.	8r	.	8r	.	16ryy	.	8ryy	.
.	.	.	.	.	.	16ryy	.	.	.
=73	=73	=73	=73	=73	=73	=73	=73	=73	=73
4r	.	4r	.	4r	.	16ryy	.	4.ryy	.
.	.	.	.	.	.	16ryy	.	.	.
.	.	.	.	.	.	16ryy	.	.	.
.	.	.	.	.	.	16ryy	.	.	.
8GGG#X	.	8GG#X	.	8G#X 8e 8fn	.	16ryy	.	.	.
.	.	.	.	.	.	16ryy	.	.	.
/8DD	.	/8D	.	8G# 8e 8f	.	16ryy	.	4ryy	.
.	.	.	.	.	.	16ryy	.	.	.
8r	.	8r	.	8r	.	16ryy	.	.	.
.	.	.	.	.	.	16ryy	.	.	.
8r	.	8r	.	8r	.	16ryy	.	8ryy	.
.	.	.	.	.	.	16ryy	.	.	.
=74	=74	=74	=74	=74	=74	=74	=74	=74	=74
8r	.	8r	.	8r	.	16ryy	.	4.ryy	.
.	.	.	.	.	.	16ryy	.	.	.
8FFF#XL	.	8FF#XL	.	8G#XL 8A 8c#X	.	16ryy	.	.	.
.	.	.	.	.	.	16ryy	.	.	.
8EEJ	.	8EJ	.	8G#J 8A 8c#	.	16ryy	.	.	.
.	.	.	.	.	.	16ryy	.	.	.
4r	.	4r	.	4r	.	16ryy	.	4.ryy	.
.	.	.	.	.	.	16ryy	.	.	.
.	.	.	.	.	.	16ryy	.	.	.
.	.	.	.	.	.	16ryy	.	.	.
8r	.	8r	.	8r	.	16ryy	.	.	.
.	.	.	.	.	.	16ryy	.	.	.
!!linebreak:original
=75	=75	=75	=75	=75	=75	=75	=75	=75	=75
8AAA#XL	.	8AA#XL	.	8c#XL 8e 8fn	.	16ryy	.	4.ryy	.
.	.	.	.	.	.	16ryy	.	.	.
8CC#XJ	.	8C#XJ	.	8c#J 8e 8f	.	16ryy	.	.	.
.	.	.	.	.	.	16ryy	.	.	.
8r	.	8r	.	8r	.	16ryy	.	.	.
.	.	.	.	.	.	16ryy	.	.	.
4r	.	4r	.	4r	.	16ryy	.	4.ryy	.
.	.	.	.	.	.	16ryy	.	.	.
.	.	.	.	.	.	16ryy	.	.	.
.	.	.	.	.	.	16ryy	.	.	.
8GGG#XL	.	8GG#XL	.	8G#XL 8e 8f	.	16ryy	.	.	.
.	.	.	.	.	.	16ryy	.	.	.
=76	=76	=76	=76	=76	=76	=76	=76	=76	=76
/8DDJ	.	/8DJ	.	8G#XJ 8e 8f	.	16ryy	.	2.ryy	.
.	.	.	.	.	.	16ryy	.	.	.
8r	.	8r	.	8r	.	16ryy	.	.	.
.	.	.	.	.	.	16ryy	.	.	.
8r	.	8r	.	8r	.	16ryy	.	.	.
.	.	.	.	.	.	16ryy	.	.	.
8r	.	8r	.	8r	.	16ryy	.	.	.
.	.	.	.	.	.	16ryy	.	.	.
8FFF#XL	.	8FF#XL	.	8G#L 8A 8c#X	.	16ryy	.	.	.
.	.	.	.	.	.	16ryy	.	.	.
/8EEJ	.	/8EJ	.	8G#J 8A 8c#	.	16ryy	.	.	.
.	.	.	.	.	.	16ryy	.	.	.
=77	=77	=77	=77	=77	=77	=77	=77	=77	=77
4r	.	4r	.	4r	.	16ryy	.	4.ryy	.
.	.	.	.	.	.	16ryy	.	.	.
.	.	.	.	.	.	16ryy	.	.	.
.	.	.	.	.	.	16ryy	.	.	.
8r	.	8r	.	8r	.	16ryy	.	.	.
.	.	.	.	.	.	16ryy	.	.	.
8AAA#XL	.	8AA#XL	.	8c#XL 8e 8fn	.	16ryy	.	4.ryy	.
.	.	.	.	.	.	16ryy	.	.	.
8CC#XJ	.	8C#XJ	.	8c#J 8e 8f	.	16ryy	.	.	.
.	.	.	.	.	.	16ryy	.	.	.
8r	.	8r	.	8r	.	16ryy	.	.	.
.	.	.	.	.	.	16ryy	.	.	.
=78	=78	=78	=78	=78	=78	=78	=78	=78	=78
4r	.	4r	.	4r	.	16ryy	.	4.ryy	.
.	.	.	.	.	.	16ryy	.	.	.
.	.	.	.	.	.	16ryy	.	.	.
.	.	.	.	.	.	16ryy	.	.	.
8GGG#X	.	8GG#X	.	8G#X 8e 8f	.	16ryy	.	.	.
.	.	.	.	.	.	16ryy	.	.	.
/8DD	.	/8D	.	8G# 8e 8f	.	16ryy	.	4.ryy	.
.	.	.	.	.	.	16ryy	.	.	.
8r	.	8r	.	8r	.	16ryy	.	.	.
.	.	.	.	.	.	16ryy	.	.	.
8r	.	8r	.	8r	.	16ryy	.	.	.
.	.	.	.	.	.	16ryy	.	.	.
=79	=79	=79	=79	=79	=79	=79	=79	=79	=79
8r	.	8r	.	8r	.	16ryy	.	4.ryy	.
.	.	.	.	.	.	16ryy	.	.	.
8FFF#XL	.	8FF#XL	.	8G#XL 8A 8c#X	.	16ryy	.	.	.
.	.	.	.	.	.	16ryy	.	.	.
8EEJ	.	8EJ	.	8G#J 8A 8c#	.	16ryy	.	.	.
.	.	.	.	.	.	16ryy	.	.	.
4r	.	4r	.	4r	.	16ryy	.	4.ryy	.
.	.	.	.	.	.	16ryy	.	.	.
.	.	.	.	.	.	16ryy	.	.	.
.	.	.	.	.	.	16ryy	.	.	.
8r	.	8r	.	8r	.	16ryy	.	.	.
.	.	.	.	.	.	16ryy	.	.	.
*	*	*	*	*	*	*Xtremolo	*	*	*
=	=	=	=	=	=	=	=	=	=
*-	*-	*-	*-	*-	*-	*-	*-	*-	*-
!!!system-decoration: [(s1,s2,s3,s4,s5)]
!!!RDF**dynam: > = dimin.
!!!EED: Daniel Wright
!!!EEV: 2021/08/23
!!!EED2: Rafael Laurindo
!!!EEV2: 2022/02/18
